svg/color/maraon.svg

<svg width="40" height="40" viewBox="0 0 40 40" fill="none" xmlns="http://www.w3.org/2000/svg">
<g clip-path="url(#clip0_819_3563)">
<path d="M20 0C31.0457 0 40 8.9543 40 20C40 31.0457 31.0457 40 20 40C8.95431 40 7.90517e-06 31.0457 0 20C6.58765e-07 8.95431 8.95431 1.97595e-06 20 0Z" fill="#D4D3D3"/>
<path d="M26 6C30.4183 6 34 9.58172 34 14V26C34 30.4183 30.4183 34 26 34H14C9.58172 34 6 30.4183 6 26V14C6 9.58172 9.58172 6 14 6H26Z" fill="#272525"/>
<path d="M27.3268 26.7023C27.5009 26.7023 27.6424 26.8435 27.6425 27.0176V29.0483C27.6424 29.1136 27.5894 29.1667 27.5241 29.1667H12.6615C12.4874 29.1667 12.3462 29.0252 12.3462 28.8511V26.8207C12.3462 26.7554 12.3993 26.7023 12.4646 26.7023H27.3268ZM16.0342 10.8334C16.0736 10.8334 16.1094 10.8571 16.1248 10.8934L19.8001 19.5106H20.2018L23.8768 10.8934C23.8923 10.8571 23.928 10.8334 23.9675 10.8334H27.557C27.6114 10.8334 27.6554 10.8777 27.6554 10.9321V23.0556C27.6554 23.11 27.6114 23.154 27.557 23.1541H25.2756C25.2212 23.1541 25.1769 23.11 25.1769 23.0556V14.6002H24.7752L21.1522 23.0943C21.1367 23.1306 21.101 23.1541 21.0615 23.1541H18.9401C18.9007 23.1541 18.865 23.1306 18.8495 23.0943L15.2265 14.6002H14.8248V23.0556C14.8248 23.11 14.7804 23.1541 14.726 23.1541H12.4447C12.3903 23.154 12.3462 23.11 12.3462 23.0556V10.9321C12.3462 10.8777 12.3903 10.8334 12.4447 10.8334H16.0342Z" fill="white"/>
</g>
<defs>
<clipPath id="clip0_819_3563">
<rect width="40" height="40" fill="white"/>
</clipPath>
</defs>
</svg>

<svg xmlns="http://www.w3.org/2000/svg" width="40" height="40" fill="none" viewBox="0 0 40 40"><g clip-path="url(#maraon_svg-a)"><path fill="#D4D3D3" d="M20 0c11.046 0 20 8.954 20 20s-8.954 20-20 20S0 31.046 0 20 8.954 0 20 0"/><path fill="#272525" d="M26 6a8 8 0 0 1 8 8v12a8 8 0 0 1-8 8H14a8 8 0 0 1-8-8V14a8 8 0 0 1 8-8z"/><path fill="#fff" d="M27.327 26.702c.174 0 .315.141.315.316v2.03a.12.12 0 0 1-.118.119H12.662a.316.316 0 0 1-.316-.316v-2.03c0-.066.053-.119.119-.119zM16.034 10.833c.04 0 .075.024.09.06l3.676 8.618h.402l3.675-8.618a.1.1 0 0 1 .09-.06h3.59a.1.1 0 0 1 .098.1v12.123a.1.1 0 0 1-.098.098h-2.281a.1.1 0 0 1-.1-.098V14.6h-.4l-3.624 8.494a.1.1 0 0 1-.09.06H18.94a.1.1 0 0 1-.09-.06L15.225 14.6h-.401v8.456a.1.1 0 0 1-.099.098h-2.281a.1.1 0 0 1-.099-.098V10.932a.1.1 0 0 1 .099-.099z"/></g><defs><clipPath id="maraon_svg-a"><path fill="#fff" d="M0 0h40v40H0z"/></clipPath></defs></svg>
